teeny/outline/headphones.svg

<svg width="15" height="15" viewBox="0 0 15 15" fill="none" xmlns="http://www.w3.org/2000/svg">
<path d="M1.5 9.5H2.5C3.05228 9.5 3.5 9.94772 3.5 10.5V13.5C3.5 14.0523 3.05228 14.5 2.5 14.5H1.5C0.947715 14.5 0.5 14.0523 0.5 13.5V10.5C0.5 9.94772 0.947715 9.5 1.5 9.5ZM1.5 9.5V6.5C1.5 3.18629 4.18629 0.5 7.5 0.5C10.8137 0.5 13.5 3.18629 13.5 6.5V9.5M13.5 9.5H12.5C11.9477 9.5 11.5 9.94772 11.5 10.5V13.5C11.5 14.0523 11.9477 14.5 12.5 14.5H13.5C14.0523 14.5 14.5 14.0523 14.5 13.5V10.5C14.5 9.94772 14.0523 9.5 13.5 9.5Z" stroke="black"/>
</svg>

<svg viewBox="0 0 15 15" xmlns="http://www.w3.org/2000/svg"><path fill="none" stroke="#000" d="M1.5 9.5h1c.55 0 1 .44 1 1v3c0 .55-.45 1-1 1h-1c-.56 0-1-.45-1-1v-3c0-.56.44-1 1-1Zm0 0v-3c0-3.32 2.68-6 6-6 3.31 0 6 2.68 6 6v3m0 0h-1c-.56 0-1 .44-1 1v3c0 .55.44 1 1 1h1c.55 0 1-.45 1-1v-3c0-.56-.45-1-1-1Z"/></svg>
